X: 165
T:The Hexatonic Scales based on A
L:1/4
M:9/4
K:A
"^Lydian/Major Hexatonic"       A2 Bc efg a2|a2 gf ecB A2||
M:9/4
K:A
"^Major/Mixolydian Hexatonic"   A2 Bc def a2|a2 fe dcB A2||
M:9/4
K:ADor
"^Mixolydian/Dorian Hexatonic"  A2 Bd efg a2|a2 gf edB A2||
M:9/4
K:AMin
"^Dorian/Minor Hexatonic"       A2 Bc deg a2|a2 ge dcB A2||
M:9/4
K:AMin
"^Minor/Phrygian Hexatonic"     A2 cd efg a2|a2 gf edc A2|]

=============================================================================
==  (c) Jack Campin          http://www.campin.me.uk/         August 2013  ==
==        11 Third Street, Newtongrange, Midlothian EH22 4PU, Scotland     ==
==                                                                         ==
==              these pages: http://tinyurl.com/scottishmodes              ==
=============================================================================

=============================================================================
=               Scales and Modes in Scottish Traditional Music              =
=                                  Jack Campin                              =
=============================================================================


Pentatonic Modes
================

1. The Pentatonic Pitch Set
== ========================

The PENTATONIC pitch set omits pitches 5 and 12 from the diatonic pitch
set to leave five notes, 1 3 6 8 12 (or C D F G A in white notes, or only
the black notes).  Its intervals are three whole tones and two minor thirds,
no semitones.  There are three ways of getting transpositions of it from
the white notes of a piano:

   -mi -ti:   1  2  3  4  5  6  7  8  9 10 11 12
              C     D        F     G     A
             do    re       fa    so    la
                 T      m       T     T      m

   -fa -ti:   1  2  3  4  5  6  7  8  9 10 11 12
              C     D     E        G     A
             do    re    mi       so    la
                 T     T      m       T      m

   -do -fa:   1  2  3  4  5  6  7  8  9 10 11 12
                    D     E        G     A     B
                   re    mi       so    la    ti
                       T      m       T     T     m

It has different modes like the seven-note and six-note pitch sets. There
are three pentatonic modes used in Scottish music, and a fourth which has a
sort of theoretical existence.  There are countless other ways of selecting
five notes; none of them seem to have much place in Scottish tradition.  In
particular, the pentatonic pitch sets of African music typically don't fit
any Scottish tunes.

On the pipes, with their two-sharp scale, there are also three alternate
ways to get this pitch set.  One is the CF-gap set, GAB-de-ga.  Another is
the GC-gap set, AB-def-a.  The third possibility is the DG-gap pitch set,
ABc-ef-a.  Each of these can be used with a variety of tonal centres to get
different modes: and because of the limited range and non-uniform tuning of
the pipe chanter, each has a different effect.


2. The Mixolydian/Dorian/Minor Pentatonic Mode
== ===========================================

The MIXOLYDIAN/DORIAN/MINOR PENTATONIC mode has pitch 8 (G in this white-
note scale) as its home note.  That is, it's what you get from the black-note
scale by taking G sharp/A flat as the home note, or from the white-note
minor, dorian or mixolydian scales by leaving out the third and sixth.
Its interval sequence is TmT mT.  In Bronson's scheme it's pi-3.  In A, it's
ABdega.  This is a very common scale in Highland pipe music.  There are
three ways of looking at it in sol-fa.

